public/assets/images/field-m16.svg

<svg width="18" height="18" viewBox="0 0 18 18" fill="none" xmlns="http://www.w3.org/2000/svg">
<mask id="path-2-inside-1" fill="white">
<path fill-rule="evenodd" clip-rule="evenodd" d="M10.785 1.247L15.1725 5.797C15.3186 5.94902 15.4001 6.15168 15.4 6.3625V13.1875C15.4 13.403 15.3144 13.6097 15.162 13.762C15.0097 13.9144 14.803 14 14.5875 14H12.4V16.1875C12.4 16.403 12.3144 16.6097 12.162 16.762C12.0097 16.9144 11.803 17 11.5875 17H2.8125C2.59701 17 2.39035 16.9144 2.23798 16.762C2.0856 16.6097 2 16.403 2 16.1875V4.8125C2 4.59701 2.0856 4.39035 2.23798 4.23798C2.39035 4.0856 2.59701 4 2.8125 4H5V1.8125C5 1.59701 5.0856 1.39035 5.23798 1.23798C5.39035 1.0856 5.59701 1 5.8125 1H10.2C10.309 1.00033 10.4169 1.02234 10.5173 1.06475C10.6177 1.10715 10.7087 1.1691 10.785 1.247ZM5 5.625H3.625V15.375H10.775V14H5.8125C5.59701 14 5.39035 13.9144 5.23798 13.762C5.0856 13.6097 5 13.403 5 13.1875V5.625ZM12.9982 5.875L10.85 3.6585V5.875H12.9982ZM6.625 2.625V12.375H13.775V7.5H10.0375C9.82369 7.50002 9.61849 7.41575 9.46639 7.26548C9.3143 7.11521 9.22757 6.91104 9.225 6.69725V2.625H6.625Z"/>
</mask>
<path fill-rule="evenodd" clip-rule="evenodd" d="M10.785 1.247L15.1725 5.797C15.3186 5.94902 15.4001 6.15168 15.4 6.3625V13.1875C15.4 13.403 15.3144 13.6097 15.162 13.762C15.0097 13.9144 14.803 14 14.5875 14H12.4V16.1875C12.4 16.403 12.3144 16.6097 12.162 16.762C12.0097 16.9144 11.803 17 11.5875 17H2.8125C2.59701 17 2.39035 16.9144 2.23798 16.762C2.0856 16.6097 2 16.403 2 16.1875V4.8125C2 4.59701 2.0856 4.39035 2.23798 4.23798C2.39035 4.0856 2.59701 4 2.8125 4H5V1.8125C5 1.59701 5.0856 1.39035 5.23798 1.23798C5.39035 1.0856 5.59701 1 5.8125 1H10.2C10.309 1.00033 10.4169 1.02234 10.5173 1.06475C10.6177 1.10715 10.7087 1.1691 10.785 1.247ZM5 5.625H3.625V15.375H10.775V14H5.8125C5.59701 14 5.39035 13.9144 5.23798 13.762C5.0856 13.6097 5 13.403 5 13.1875V5.625ZM12.9982 5.875L10.85 3.6585V5.875H12.9982ZM6.625 2.625V12.375H13.775V7.5H10.0375C9.82369 7.50002 9.61849 7.41575 9.46639 7.26548C9.3143 7.11521 9.22757 6.91104 9.225 6.69725V2.625H6.625Z" fill="#4F66EE"/>
<path d="M15.1725 5.797L15.4249 5.55451L15.4244 5.55405L15.1725 5.797ZM10.785 1.247L11.037 1.00405L11.0351 1.00214L10.785 1.247ZM15.4 6.3625L15.05 6.36236V6.3625H15.4ZM12.4 14V13.65H12.05V14H12.4ZM2.23798 4.23798L2.48546 4.48546L2.48546 4.48546L2.23798 4.23798ZM5 4V4.35H5.35V4H5ZM5.23798 1.23798L4.99049 0.990488L4.99049 0.990489L5.23798 1.23798ZM10.2 1L10.2011 0.65H10.2V1ZM10.5173 1.06475L10.6534 0.742311L10.5173 1.06475ZM5 5.625H5.35V5.275H5V5.625ZM3.625 5.625V5.275H3.275V5.625H3.625ZM3.625 15.375H3.275V15.725H3.625V15.375ZM10.775 15.375V15.725H11.125V15.375H10.775ZM10.775 14H11.125V13.65H10.775V14ZM5.23798 13.762L4.99049 14.0095H4.99049L5.23798 13.762ZM10.85 3.6585L11.1013 3.41491L10.5 2.79448V3.6585H10.85ZM12.9982 5.875V6.225H13.8249L13.2496 5.63141L12.9982 5.875ZM10.85 5.875H10.5V6.225H10.85V5.875ZM6.625 12.375H6.275V12.725H6.625V12.375ZM6.625 2.625V2.275H6.275V2.625H6.625ZM13.775 12.375V12.725H14.125V12.375H13.775ZM13.775 7.5H14.125V7.15H13.775V7.5ZM10.0375 7.5V7.15H10.0375L10.0375 7.5ZM9.46639 7.26548L9.22041 7.51446H9.22041L9.46639 7.26548ZM9.225 6.69725H8.87497L8.87502 6.70145L9.225 6.69725ZM9.225 2.625H9.575V2.275H9.225V2.625ZM15.4244 5.55405L11.0369 1.00405L10.5331 1.48995L14.9206 6.03995L15.4244 5.55405ZM15.75 6.36264C15.7501 6.06138 15.6336 5.77176 15.4249 5.55452L14.9201 6.03948C15.0035 6.12628 15.05 6.24199 15.05 6.36236L15.75 6.36264ZM15.75 13.1875V6.3625H15.05V13.1875H15.75ZM15.4095 14.0095C15.6275 13.7915 15.75 13.4958 15.75 13.1875H15.05C15.05 13.3102 15.0013 13.4278 14.9145 13.5145L15.4095 14.0095ZM14.5875 14.35C14.8958 14.35 15.1915 14.2275 15.4095 14.0095L14.9145 13.5145C14.8278 13.6013 14.7102 13.65 14.5875 13.65V14.35ZM12.4 14.35H14.5875V13.65H12.4V14.35ZM12.05 14V16.1875H12.75V14H12.05ZM12.05 16.1875C12.05 16.3102 12.0013 16.4278 11.9145 16.5145L12.4095 17.0095C12.6275 16.7915 12.75 16.4958 12.75 16.1875H12.05ZM11.9145 16.5145C11.8278 16.6013 11.7102 16.65 11.5875 16.65V17.35C11.8958 17.35 12.1915 17.2275 12.4095 17.0095L11.9145 16.5145ZM11.5875 16.65H2.8125V17.35H11.5875V16.65ZM2.8125 16.65C2.68984 16.65 2.5722 16.6013 2.48546 16.5145L1.99049 17.0095C2.2085 17.2275 2.50419 17.35 2.8125 17.35V16.65ZM2.48546 16.5145C2.39873 16.4278 2.35 16.3102 2.35 16.1875H1.65C1.65 16.4958 1.77248 16.7915 1.99049 17.0095L2.48546 16.5145ZM2.35 16.1875V4.8125H1.65V16.1875H2.35ZM2.35 4.8125C2.35 4.68984 2.39873 4.5722 2.48546 4.48546L1.99049 3.99049C1.77248 4.2085 1.65 4.50419 1.65 4.8125H2.35ZM2.48546 4.48546C2.5722 4.39873 2.68984 4.35 2.8125 4.35V3.65C2.50419 3.65 2.2085 3.77248 1.99049 3.99049L2.48546 4.48546ZM2.8125 4.35H5V3.65H2.8125V4.35ZM4.65 1.8125V4H5.35V1.8125H4.65ZM4.99049 0.990489C4.77248 1.2085 4.65 1.50419 4.65 1.8125H5.35C5.35 1.68984 5.39873 1.5722 5.48546 1.48546L4.99049 0.990489ZM5.8125 0.65C5.50419 0.65 5.2085 0.772477 4.99049 0.990488L5.48546 1.48546C5.5722 1.39873 5.68984 1.35 5.8125 1.35V0.65ZM10.2 0.65H5.8125V1.35H10.2V0.65ZM10.6534 0.742311C10.5103 0.681857 10.3565 0.650479 10.2011 0.650002L10.1989 1.35C10.2615 1.35019 10.3235 1.36283 10.3812 1.38719L10.6534 0.742311ZM11.0351 1.00214C10.9264 0.891088 10.7966 0.802765 10.6534 0.742311L10.3812 1.38719C10.4388 1.41154 10.4911 1.44712 10.5349 1.49186L11.0351 1.00214ZM5 5.275H3.625V5.975H5V5.275ZM3.275 5.625V15.375H3.975V5.625H3.275ZM3.625 15.725H10.775V15.025H3.625V15.725ZM11.125 15.375V14H10.425V15.375H11.125ZM5.8125 14.35H10.775V13.65H5.8125V14.35ZM4.99049 14.0095C5.2085 14.2275 5.50419 14.35 5.8125 14.35V13.65C5.68984 13.65 5.5722 13.6013 5.48546 13.5145L4.99049 14.0095ZM4.65 13.1875C4.65 13.4958 4.77248 13.7915 4.99049 14.0095L5.48546 13.5145C5.39873 13.4278 5.35 13.3102 5.35 13.1875H4.65ZM4.65 5.625V13.1875H5.35V5.625H4.65ZM10.5987 3.90209L12.7469 6.11859L13.2496 5.63141L11.1013 3.41491L10.5987 3.90209ZM11.2 5.875V3.6585H10.5V5.875H11.2ZM12.9982 5.525H10.85V6.225H12.9982V5.525ZM6.975 12.375V2.625H6.275V12.375H6.975ZM13.775 12.025H6.625V12.725H13.775V12.025ZM13.425 7.5V12.375H14.125V7.5H13.425ZM10.0375 7.85H13.775V7.15H10.0375V7.85ZM9.22041 7.51446C9.43802 7.72946 9.73161 7.85002 10.0375 7.85L10.0375 7.15C9.91577 7.15001 9.79896 7.10204 9.71238 7.0165L9.22041 7.51446ZM8.87502 6.70145C8.8787 7.00734 9.00279 7.29945 9.22041 7.51446L9.71238 7.0165C9.62581 6.93097 9.57643 6.81475 9.57497 6.69305L8.87502 6.70145ZM8.875 2.625V6.69725H9.575V2.625H8.875ZM6.625 2.975H9.225V2.275H6.625V2.975Z" fill="white" mask="url(#path-2-inside-1)"/>
</svg>

<svg width="18" height="18" fill="none" xmlns="http://www.w3.org/2000/svg"><mask id="a" fill="#fff"><path fill-rule="evenodd" clip-rule="evenodd" d="M10.785 1.247l4.387 4.55a.815.815 0 01.228.566v6.824a.812.812 0 01-.813.813H12.4v2.188a.812.812 0 01-.813.812H2.814A.812.812 0 012 16.187V4.813A.812.812 0 012.813 4H5V1.812A.812.812 0 015.813 1H10.2a.822.822 0 01.585.247zM5 5.625H3.625v9.75h7.15V14H5.812A.812.812 0 015 13.187V5.625zm7.998.25L10.85 3.659v2.216h2.148zm-6.373-3.25v9.75h7.15V7.5h-3.738a.813.813 0 01-.812-.803V2.625h-2.6z"/></mask><path fill-rule="evenodd" clip-rule="evenodd" d="M10.785 1.247l4.387 4.55a.815.815 0 01.228.566v6.824a.812.812 0 01-.813.813H12.4v2.188a.812.812 0 01-.813.812H2.814A.812.812 0 012 16.187V4.813A.812.812 0 012.813 4H5V1.812A.812.812 0 015.813 1H10.2a.822.822 0 01.585.247zM5 5.625H3.625v9.75h7.15V14H5.812A.812.812 0 015 13.187V5.625zm7.998.25L10.85 3.659v2.216h2.148zm-6.373-3.25v9.75h7.15V7.5h-3.738a.813.813 0 01-.812-.803V2.625h-2.6z" fill="#4F66EE"/><path d="M15.172 5.797l.253-.242-.253.242zm-4.387-4.55l.252-.243-.002-.002-.25.245zM15.4 6.362h-.35.35zM12.4 14v-.35h-.35V14h.35zM2.238 4.238l.247.247-.247-.247zM5 4v.35h.35V4H5zm.238-2.762L4.99.99l.248.248zM10.2 1l.001-.35H10.2V1zm.317.065l.136-.323-.136.323zM5 5.625h.35v-.35H5v.35zm-1.375 0v-.35h-.35v.35h.35zm0 9.75h-.35v.35h.35v-.35zm7.15 0v.35h.35v-.35h-.35zm0-1.375h.35v-.35h-.35V14zm-5.537-.238l-.248.247.248-.247zM10.85 3.658l.251-.243-.601-.62v.864h.35zm2.148 2.217v.35h.827l-.575-.594-.252.244zm-2.148 0h-.35v.35h.35v-.35zm-4.225 6.5h-.35v.35h.35v-.35zm0-9.75v-.35h-.35v.35h.35zm7.15 9.75v.35h.35v-.35h-.35zm0-4.875h.35v-.35h-.35v.35zm-3.738 0v-.35.35zm-.57-.235l-.247.25.246-.25zm-.242-.568h-.35v.004l.35-.004zm0-4.072h.35v-.35h-.35v.35zm6.2 2.929l-4.388-4.55-.504.486 4.388 4.55.503-.486zm.325.809c0-.302-.116-.591-.325-.808l-.505.484c.084.087.13.203.13.323h.7zm0 6.824V6.364h-.7v6.824h.7zm-.34.822c.217-.218.34-.513.34-.822h-.7c0 .123-.049.24-.136.328l.495.494zm-.822.341c.308 0 .604-.123.822-.34l-.495-.495a.462.462 0 01-.327.135v.7zm-2.188 0h2.188v-.7H12.4v.7zm-.35-.35v2.188h.7V14h-.7zm0 2.188c0 .122-.049.24-.136.327l.495.494c.218-.218.341-.513.341-.822h-.7zm-.136.327a.462.462 0 01-.326.135v.7c.308 0 .604-.123.822-.34l-.495-.495zm-.326.135H2.813v.7h8.774v-.7zm-8.775 0a.462.462 0 01-.328-.135l-.495.494c.218.218.514.341.823.341v-.7zm-.328-.135a.462.462 0 01-.135-.328h-.7c0 .309.122.604.34.822l.495-.494zm-.135-.328V4.813h-.7v11.375h.7zm0-11.375c0-.122.049-.24.135-.327L1.99 3.99c-.218.218-.34.514-.34.822h.7zm.135-.327a.463.463 0 01.328-.135v-.7c-.309 0-.605.122-.823.34l.495.495zm.328-.135H5v-.7H2.812v.7zM4.65 1.813V4h.7V1.812h-.7zM4.99.99c-.218.218-.34.514-.34.823h.7c0-.123.049-.24.135-.328L4.99.99zm.822-.34c-.308 0-.604.122-.822.34l.495.495a.463.463 0 01.327-.135v-.7zm4.388 0H5.813v.7H10.2v-.7zm.453.092a1.172 1.172 0 00-.452-.092l-.002.7c.063 0 .124.013.182.037l.272-.645zm.382.26a1.172 1.172 0 00-.382-.26l-.272.645c.058.025.11.06.154.105l.5-.49zM5 5.275H3.625v.7H5v-.7zm-1.725.35v9.75h.7v-9.75h-.7zm.35 10.1h7.15v-.7h-7.15v.7zm7.5-.35V14h-.7v1.375h.7zM5.812 14.35h4.963v-.7H5.812v.7zm-.822-.34c.218.217.514.34.822.34v-.7a.462.462 0 01-.327-.136l-.495.495zm-.34-.822c0 .308.122.603.34.821l.495-.495a.462.462 0 01-.135-.326h-.7zm0-7.563v7.563h.7V5.625h-.7zm5.949-1.723l2.148 2.217.503-.488L11.1 3.415l-.502.487zm.601 1.973V3.659h-.7v2.216h.7zm1.798-.35H10.85v.7h2.148v-.7zm-6.023 6.85v-9.75h-.7v9.75h.7zm6.8-.35h-7.15v.7h7.15v-.7zm-.35-4.525v4.875h.7V7.5h-.7zm-3.388.35h3.738v-.7h-3.738v.7zm-.817-.336c.218.215.512.336.817.336v-.7a.463.463 0 01-.325-.134l-.492.498zm-.345-.813c.004.306.128.598.345.813l.492-.498a.463.463 0 01-.137-.323l-.7.008zm0-4.076v4.072h.7V2.625h-.7zm-2.25.35h2.6v-.7h-2.6v.7z" fill="#fff" mask="url(#a)"/></svg>
